X:1
T:Title
%%score { ( 1 2 6 ) | ( 3 4 5 ) }
L:1/8
M:3/2
K:C
V:1 treble nm="Grand Piano"
V:2 treble 
V:6 treble 
V:3 bass 
V:4 bass 
V:5 bass 
V:1
 z4[Q:1/4=106] .[A,E]4 F2 G2 | .[DA]4 A2 c2 B2 A2 | [G,G]2- [G,-DG-][G,CG] G2 B2 A2 G2 | %3
 z2 z F F2 A2 G2 F2 |[M:2/4] [G,CE]4 |[M:4/4] A,2 z2 F2 G2 |[M:6/4] .[DA]4 A2 c2 B2 A2 | %7
 [G,G]2- [G,-DG-][G,CG] G2 B2 A2 G2 | z2 z F F2 A2 G2 F2 |[M:2/4] E4 |[M:4/4] B2 AG A2 GF | %11
 G2 FE F2 E2 | C2 [B,D]2 E4 | B2 AG A2 GF | G2 FE F2 E2 | F2 G2 A4 | A3 A BABA | z4 .A2 z2 | %18
 F2 GF E4 | z4 .B2 z2 | z4 .A2 z2 | F2 GF E4 |] %22
V:2
 z4 C8 | F12 | .E4 z4 z4 | F4 z4 z4 |[M:2/4] x4 |[M:4/4] [C-E]4 C4 |[M:6/4] F12 | .E6 z6 | .F6 z6 | %9
[M:2/4] x4 |[M:4/4] x8 | x8 | x8 | x8 | x8 | x8 | z4 G4 | [G,EG]4 E-[E-G][E-A][EG] | x8 | %19
 A3 A G-[G-A][GB]A | [G,EG]4 E-[E-G][E-A][EG] | x8 |] %22
V:3
 z4 z2 z E F,2 E,2 | z2[K:treble] C2 z4 z4[K:bass] | C,4 [E,G,B,]8 | .[F,A,C]4 [D,A,D]8 | %4
[M:2/4] E,4 |[M:4/4] z2 z E F,2 E,2 |[M:6/4] z2[K:treble] .C4 z6[K:bass] | %7
 C,4 [E,G,B,]2- [E,G,B,]6 | .[F,A,C]4 [D,A,D]2- [D,A,D]6 |[M:2/4] [E,G,C]4 | %10
[M:4/4][K:treble] [G,E]2- [G,CE]2 F2 ED | E2 DC D2 C2 | [D,F,^G,]2 [G,,=G,]2 [C,G,C]4 | %13
 [G,E]2- [G,CE]2 F2 ED | E2 DC C2- [G,B,C]2 | C4 z4 | [F,A,C]4 z2 z F | z2 z G [B,,G,]4 | %18
 [C,A,C]4 [E,^G,B,]4 | [F,A,C]4 z2 z F | z2 z G [B,,G,]4 | [C,A,C]4 [E,^G,B,]4 |] %22
V:4
 z4 z2 G,2 z4 | z2[K:treble] z A B,2 A,2 G,2[K:bass] F,2 | x12 | x12 |[M:2/4] x4 | %5
[M:4/4] z2 G,2 z4 |[M:6/4] z2[K:treble] z A B,2 A,2 G,2[K:bass] F,2 | x12 | x12 |[M:2/4] x4 | %10
[M:4/4][K:treble] B,2 z2 [F,C]4 | [E,C]4 [D,A,]4 | x8 | B,2 z2 [F,C]4 | [E,C]4 A,2 z2 | %15
 [F,A,]2 [E,G,]2 [D,F,D]4 | z4 [D,G,]4 | C,4 z4 | x8 | z4 [D,G,]4 | C,4 z4 | x8 |] %22
V:5
 z4 A,,8 | D,12[K:treble][K:bass] | x12 | x12 |[M:2/4] x4 |[M:4/4] A,,8 | %6
[M:6/4] D,12[K:treble][K:bass] | x12 | x12 |[M:2/4] x4 |[M:4/4][K:treble] x8 | x8 | x8 | x8 | x8 | %15
 x8 | x8 | x8 | x8 | x8 | x8 | x8 |] %22
V:6
 x12 | x12 | x12 | z2 E,2 z4 z4 |[M:2/4] x4 |[M:4/4] x8 |[M:6/4] x12 | x12 | z2 .E,4 z6 | %9
[M:2/4] x4 |[M:4/4] x8 | x8 | x8 | x8 | x8 | x8 | x8 | x8 | x8 | x8 | x8 | x8 |] %22

